assets/img/microillustration/efficiency.svg

<?xml version="1.0" encoding="UTF-8"?>
<svg width="106px" height="106px" viewBox="0 0 106 106" version="1.1" xmlns="http://www.w3.org/2000/svg" xmlns:xlink="http://www.w3.org/1999/xlink">
    <title>4. Elements_Microillustrations/Efficiency</title>
    <g id="4.-Elements_Microillustrations/Efficiency" stroke="none" stroke-width="1" fill="none" fill-rule="evenodd">
        <path d="M31.4992919,21 C39.8108049,21 47.3705008,24.2700005 52.9997018,29.6126411 C46.8459702,35.4537012 43,43.7705583 43,53 C43,62.2294417 46.8459702,70.5462988 52.9987694,76.3866247 C47.3705008,81.7299995 39.8108049,85 31.4992919,85 C14.1019624,85 0,70.6730804 0,53 C0,35.3269196 14.1019624,21 31.4992919,21 Z M74.4992919,21 C91.8966215,21 106,35.3269196 106,53 C106,70.6730804 91.8966215,85 74.4992919,85 C66.1873983,85 58.6277138,81.7297 52.9987694,76.3866247 C59.1533213,70.5469958 63,62.2298285 63,53 L63,53 L62.9957798,52.4708224 C62.8518434,43.4525689 59.0354931,35.3411742 52.9997018,29.6126411 C58.6277138,24.2703 66.1873983,21 74.4992919,21 Z" id="Combined-Shape" fill="#009BBD"></path>
        <path d="M63,53.5 C63,62.9554857 59.1483154,71.4678739 53.0000825,77.4068164 C46.8512978,71.4678739 43,62.9554857 43,53.5 C43,44.0445143 46.8512978,35.5321261 52.9991647,29.5931836 C59.1483154,35.5321261 63,44.0445143 63,53.5 Z" id="Combined-Shape" fill="#ACEDFB"></path>
    </g>
</svg>

<?xml version="1.0" encoding="UTF-8"?>
<svg version="1.1" viewBox="0 0 106 106" xmlns="http://www.w3.org/2000/svg">
<title>4. Elements_Microillustrations/Efficiency</title>
<g fill-rule="evenodd">
<path id="a" d="m31.499 21c8.3115 0 15.871 3.27 21.5 8.6126-6.1537 5.8411-9.9997 14.158-9.9997 23.387s3.846 17.546 9.9988 23.387c-5.6283 5.3434-13.188 8.6134-21.499 8.6134-17.397 0-31.499-14.327-31.499-32s14.102-32 31.499-32zm43 0c17.397 0 31.501 14.327 31.501 32s-14.103 32-31.501 32c-8.3119 0-15.872-3.2703-21.501-8.6134 6.1546-5.8396 10.001-14.157 10.001-23.387l-0.0042202-0.52918c-0.14394-9.0183-3.9603-17.13-9.9961-22.858 5.628-5.3423 13.188-8.6126 21.5-8.6126z" fill="#009BBD"/>
<path d="m63 53.5c0 9.4555-3.8517 17.968-9.9999 23.907-6.1488-5.9389-10-14.451-10-23.907s3.8513-17.968 9.9992-23.907c6.1492 5.9389 10.001 14.451 10.001 23.907z" fill="#ACEDFB"/>
</g>
</svg>
